X: 1
T: The Campbells Are Coming
S: trad., Kerr's 1st
Z: arr. Terry Traub, 8-23-2004
M: 6/8
L: 1/8
R: Jig
K: G
|: BA |\
"G"G2e dBG | BcB B2A | G2e dBG | "D"ABA A2G |\
"G"Bde dBG | dBd gab | "C"geg "G"dBG | BcB B2 :|
|: d |\
"G"g2g gab | ded dBd | "G"g2g "Em"gab | "C"e2e "D"e2d |\
"G"def "C"gfe | "G"def gab | "C"geg "G"dBG | "G"B2B B2 :|
